hornpipes/bobbycaseys.htmlhornpipes/bobbycaseys.htmlhornpipes/bobbycaseys.htmlhornpipes/bobbycaseys.htmlhornpipes/bobbycaseys.htmlhornpipes/bobbycaseys.htmlhornpipes/bobbycaseys.html<P ALIGN=Right>Joe Scurfield
hornpipes/bobbycaseys.htmlhornpipes/bobbycaseys.html<PRE>T:Balls to Hall
T:Balls to Hall
M:6/8
L:1/8
C:Joe Scurfield
R:jig
D:Cúig: Prospect
Z:Devin McCabe
K:EMin
GEE AEE|BEE cBA|BcB BAG|FAd DEF|
!GEE AEE|BEE cBA|Bc~B- B2A|1GBE E2F:|2GBE E2B||
K:E
!B2e e/2e/2e f|gag gfe|cac a2g|fgf edc|
!B2e e/2e/2e f|gag gfe|bee a2e|geg f2e|
!B2e e/2e/2e f|gag gfe|cac a2g|fgf edc|
!B2e e/2e/2e f|gag gfe|aef =dAB|FEF =DEF||
hornpipes/bobbycaseys.htmlhornpipes/bobbycaseys.htmlhornpipes/bobbycaseys.htmlhornpipes/bobbycaseys.htmlhornpipes/bobbycaseys.htmlhornpipes/bobbycaseys.htmlhornpipes/bobbycaseys.html